src/assets/images/homework/ico-burger.svg

<svg xmlns="http://www.w3.org/2000/svg" width="19" height="17" xml:space="preserve"><path fill="#576369" d="M18.3 0H.7C.3 0 0 .3 0 .7v1.6c0 .4.3.7.7.7h17.6c.4 0 .7-.3.7-.7V.7c0-.4-.3-.7-.7-.7zm0 7H.7c-.4 0-.7.3-.7.7v1.6c0 .4.3.7.7.7h17.6c.4 0 .7-.3.7-.7V7.7c0-.4-.3-.7-.7-.7zm0 7H.7c-.4 0-.7.3-.7.7v1.6c0 .4.3.7.7.7h17.6c.4 0 .7-.3.7-.7v-1.6c0-.4-.3-.7-.7-.7z"/></svg>

<?xml version="1.0" encoding="utf-8"?>
<!-- Generator: Adobe Illustrator 18.0.0, SVG Export Plug-In . SVG Version: 6.00 Build 0)  -->
<!DOCTYPE svg PUBLIC "-//W3C//DTD SVG 1.1//EN" "http://www.w3.org/Graphics/SVG/1.1/DTD/svg11.dtd">
<svg version="1.1" id="Layer_1" xmlns="http://www.w3.org/2000/svg" xmlns:xlink="http://www.w3.org/1999/xlink" x="0px" y="0px"
	 width="19px" height="17px" viewBox="0 0 19 17" enable-background="new 0 0 19 17" xml:space="preserve">
<path fill="#576369" d="M18.3,0H0.7C0.3,0,0,0.3,0,0.7v1.6C0,2.7,0.3,3,0.7,3h17.6C18.7,3,19,2.7,19,2.3V0.7C19,0.3,18.7,0,18.3,0z
	 M18.3,7H0.7C0.3,7,0,7.3,0,7.7v1.6C0,9.7,0.3,10,0.7,10h17.6c0.4,0,0.7-0.3,0.7-0.7V7.7C19,7.3,18.7,7,18.3,7z M18.3,14H0.7
	C0.3,14,0,14.3,0,14.7v1.6C0,16.7,0.3,17,0.7,17h17.6c0.4,0,0.7-0.3,0.7-0.7v-1.6C19,14.3,18.7,14,18.3,14z"/>
</svg>
